X:492
T:News From Tripoly. (p)1702.PLFD.492
M:3/2
L:1/8
Q:1/2=100
S:Playford, Dancing Master,Supp.to 11th Ed.,1702.
O:England
Z:Chris Partington.
K:Bb
Bcd2B2f2d2B2|def2d2g2f4|f2b4d2c2B2|e2G2cdcBA2F2|
Bcd2B2f2d2B2|def2d2g2f4|f2b4a2bagf|=e2f2g2e2f4:|
|:fga2f2a2b2f2|fg_a2f2a2g4|efg2e2g2f2(ed)|c2cd edcBc2F2|
ABc2cAF2e4|def2fdB2g4|fga2afga bagf|edcB ABcAB4:|
